img/all_apps.svg

<svg fill="#fafafa" viewBox="0 0 100 100" xmlns="http://www.w3.org/2000/svg"><path d="m50 50.45a2.6 2.6 0 1 0 -2.6-2.6 2.61 2.61 0 0 0 2.6 2.6zm0-4.45a1.8 1.8 0 1 1 -1.8 1.8 1.8 1.8 0 0 1 1.8-1.8z"/><path d="m35.4 62h29.2a.4.4 0 0 0 .4-.4v-15.17a.4.4 0 0 0 -.4-.4h-7.73v-2.56a.39.39 0 0 0 0-.11.4.4 0 0 0 -.07-.1l-6.34-6v-1.35l3.54-1.51a.4.4 0 0 0 0-.74l-3.82-1.61a.4.4 0 0 0 -.31 0l-.1.06a.4.4 0 0 0 -.09.13.4.4 0 0 0 0 .16v3.22 1.51l-6.34 6a.4.4 0 0 0 -.07.1.39.39 0 0 0 0 .11v2.66h-7.87a.4.4 0 0 0 -.4.4v15.19a.4.4 0 0 0 .4.41zm.4-3.62h.82v2.82h-.82zm2.45 0v2.82h-.82v-2.83zm1.63 0v2.82h-.82v-2.83zm1.63 0v2.82h-.82v-2.83zm1.63 0v2.82h-.84v-2.83zm.81-11.93v-2.55h12.11v13.66h-1.21a.4.4 0 0 0 -.4.4v3.22h-.72v-3.35a3.3 3.3 0 0 0 -3.3-3.3h-.85a3.3 3.3 0 0 0 -3.3 3.3v3.35h-.72v-3.18a.4.4 0 0 0 -.4-.4h-1.22zm15.37 11.92v2.82h-.82v-2.82zm1.63 0v2.82h-.82v-2.82zm1.63 0v2.82h-.82v-2.82zm1.63 0v2.82h-.82v-2.82zm-6.5 2.82h-.82v-2.82h.82zm-13.77-2.82h.81v2.82h-.81zm3.14-.53a2.5 2.5 0 0 1 2.5-2.5v5.85h-2.5zm3.32 3.35v-5.85a2.5 2.5 0 0 1 2.5 2.5v3.35zm4.85-2.82h.81v2.82h-.81zm8.95-11.54v10.73h-7.33v-10.73zm-13.8-11.83v-2l2.39 1zm-.4 2.88 5.46 5.21h-10.92zm-6.87 8.95v10.73h-7.33v-10.73z"/><path d="m37 50.45h1.89a.4.4 0 0 0 .4-.4v-1.89a.4.4 0 0 0 -.4-.4h-1.89a.4.4 0 0 0 -.4.4v1.89a.4.4 0 0 0 .4.4zm.4-1.89h1.09v1.09h-1.05z"/><path d="m40 50.45h1.89a.4.4 0 0 0 .4-.4v-1.89a.4.4 0 0 0 -.4-.4h-1.89a.4.4 0 0 0 -.4.4v1.89a.4.4 0 0 0 .4.4zm.4-1.89h1.09v1.09h-1.09z"/><path d="m37 53.52h1.89a.4.4 0 0 0 .4-.4v-1.9a.4.4 0 0 0 -.4-.4h-1.89a.4.4 0 0 0 -.4.4v1.89a.4.4 0 0 0 .4.41zm.4-1.89h1.09v1.09h-1.05z"/><path d="m40 53.52h1.89a.4.4 0 0 0 .4-.4v-1.9a.4.4 0 0 0 -.4-.4h-1.89a.4.4 0 0 0 -.4.4v1.89a.4.4 0 0 0 .4.41zm.4-1.89h1.09v1.09h-1.09z"/><path d="m37 56.58h1.89a.4.4 0 0 0 .4-.4v-1.89a.4.4 0 0 0 -.4-.4h-1.89a.4.4 0 0 0 -.4.4v1.89a.4.4 0 0 0 .4.4zm.4-1.89h1.09v1.09h-1.05z"/><path d="m40 56.58h1.89a.4.4 0 0 0 .4-.4v-1.89a.4.4 0 0 0 -.4-.4h-1.89a.4.4 0 0 0 -.4.4v1.89a.4.4 0 0 0 .4.4zm.4-1.89h1.09v1.09h-1.09z"/><path d="m58.11 50.45h1.89a.4.4 0 0 0 .4-.4v-1.89a.4.4 0 0 0 -.4-.4h-1.89a.4.4 0 0 0 -.4.4v1.89a.4.4 0 0 0 .4.4zm.4-1.89h1.09v1.09h-1.09z"/><path d="m61.06 50.45h1.94a.4.4 0 0 0 .4-.4v-1.89a.4.4 0 0 0 -.4-.4h-1.94a.4.4 0 0 0 -.4.4v1.89a.4.4 0 0 0 .4.4zm.4-1.89h1.09v1.09h-1.09z"/><path d="m58.11 53.52h1.89a.4.4 0 0 0 .4-.4v-1.9a.4.4 0 0 0 -.4-.4h-1.89a.4.4 0 0 0 -.4.4v1.89a.4.4 0 0 0 .4.41zm.4-1.89h1.09v1.09h-1.09z"/><path d="m61.06 53.52h1.94a.4.4 0 0 0 .4-.4v-1.9a.4.4 0 0 0 -.4-.4h-1.94a.4.4 0 0 0 -.4.4v1.89a.4.4 0 0 0 .4.41zm.4-1.89h1.09v1.09h-1.09z"/><path d="m58.11 56.58h1.89a.4.4 0 0 0 .4-.4v-1.89a.4.4 0 0 0 -.4-.4h-1.89a.4.4 0 0 0 -.4.4v1.89a.4.4 0 0 0 .4.4zm.4-1.89h1.09v1.09h-1.09z"/><path d="m61.06 56.58h1.94a.4.4 0 0 0 .4-.4v-1.89a.4.4 0 0 0 -.4-.4h-1.94a.4.4 0 0 0 -.4.4v1.89a.4.4 0 0 0 .4.4zm.4-1.89h1.09v1.09h-1.09z"/><path d="m55.45 22h-10.9a.4.4 0 1 0 0 .8h10.9a.4.4 0 1 0 0-.8z"/><path d="m49.75 79.19a2.17 2.17 0 1 0 -2.18-2.19 2.17 2.17 0 0 0 2.18 2.19zm0-3.54a1.37 1.37 0 1 1 -1.37 1.35 1.37 1.37 0 0 1 1.37-1.35z"/><path d="m65.35 18h-30.7a4.45 4.45 0 0 0 -4.45 4.45v55.1a4.45 4.45 0 0 0 4.45 4.45h30.7a4.45 4.45 0 0 0 4.45-4.45v-55.1a4.45 4.45 0 0 0 -4.45-4.45zm-34.35 4.45a3.65 3.65 0 0 1 3.65-3.65h30.7a3.65 3.65 0 0 1 3.65 3.65v3.65h-38zm38 4.45v46.2h-38v-46.2zm0 50.65a3.65 3.65 0 0 1 -3.65 3.65h-30.7a3.65 3.65 0 0 1 -3.65-3.65v-3.65h38z"/><path d="m35.4 65.67h29.2a.4.4 0 0 0 0-.8h-29.2a.4.4 0 0 0 0 .8z"/><path d="m64.6 67.24h-29.2a.4.4 0 0 0 0 .8h29.2a.4.4 0 0 0 0-.8z"/><path d="m49.6 55.23h.8v1.35h-.8z"/></svg>

<svg fill="#FAFAFA" xmlns="http://www.w3.org/2000/svg" data-name="Layer 1" viewBox="0 0 100 100" x="0px" y="0px"><title>education jadi</title><path d="M50,50.45a2.6,2.6,0,1,0-2.6-2.6A2.61,2.61,0,0,0,50,50.45ZM50,46a1.8,1.8,0,1,1-1.8,1.8A1.8,1.8,0,0,1,50,46Z"></path><path d="M35.4,62H64.6a.4.4,0,0,0,.4-.4V46.43a.4.4,0,0,0-.4-.4H56.87V43.47a.39.39,0,0,0,0-.11v0a.4.4,0,0,0-.07-.1v0h0l-6.34-6V35.91L54,34.4a.4.4,0,0,0,0-.74l-3.82-1.61a.4.4,0,0,0-.31,0l0,0-.1.06a.4.4,0,0,0-.09.13h0a.4.4,0,0,0,0,.16v3.22h0v1.51l-6.34,6h0v0a.4.4,0,0,0-.07.1v0a.39.39,0,0,0,0,.11V46H35.4a.4.4,0,0,0-.4.4V61.59A.4.4,0,0,0,35.4,62Zm.4-3.62h.82v2.82H35.8Zm2.45,0v2.82h-.82V58.37Zm1.63,0v2.82h-.82V58.37Zm1.63,0v2.82h-.82V58.37Zm1.63,0v2.82H42.3V58.37Zm.81-11.93V43.9H56.06V57.56H54.85a.4.4,0,0,0-.4.4v3.22h-.72V57.83a3.3,3.3,0,0,0-3.3-3.3h-.85a3.3,3.3,0,0,0-3.3,3.3v3.35h-.72V58a.4.4,0,0,0-.4-.4H43.94ZM59.32,58.37v2.82H58.5V58.37Zm1.63,0v2.82h-.82V58.37Zm1.63,0v2.82h-.82V58.37Zm1.63,0v2.82h-.82V58.37Zm-6.5,2.82h-.82V58.37h.82ZM43.94,58.37h.81v2.82h-.81Zm3.14-.53a2.5,2.5,0,0,1,2.5-2.5h0v5.85H47.08Zm3.32,3.35V55.34h0a2.5,2.5,0,0,1,2.5,2.5v3.35Zm4.85-2.82h.81v2.82h-.81ZM64.2,46.83V57.56H56.87V46.83ZM50.4,35V33l2.39,1ZM50,37.88l5.46,5.21H44.54Zm-6.87,8.95V57.56H35.8V46.83Z"></path><path d="M37,50.45h1.89a.4.4,0,0,0,.4-.4V48.16a.4.4,0,0,0-.4-.4H37a.4.4,0,0,0-.4.4v1.89A.4.4,0,0,0,37,50.45Zm.4-1.89h1.09v1.09H37.44Z"></path><path d="M40,50.45h1.89a.4.4,0,0,0,.4-.4V48.16a.4.4,0,0,0-.4-.4H40a.4.4,0,0,0-.4.4v1.89A.4.4,0,0,0,40,50.45Zm.4-1.89h1.09v1.09H40.4Z"></path><path d="M37,53.52h1.89a.4.4,0,0,0,.4-.4V51.22a.4.4,0,0,0-.4-.4H37a.4.4,0,0,0-.4.4v1.89A.4.4,0,0,0,37,53.52Zm.4-1.89h1.09v1.09H37.44Z"></path><path d="M40,53.52h1.89a.4.4,0,0,0,.4-.4V51.22a.4.4,0,0,0-.4-.4H40a.4.4,0,0,0-.4.4v1.89A.4.4,0,0,0,40,53.52Zm.4-1.89h1.09v1.09H40.4Z"></path><path d="M37,56.58h1.89a.4.4,0,0,0,.4-.4V54.29a.4.4,0,0,0-.4-.4H37a.4.4,0,0,0-.4.4v1.89A.4.4,0,0,0,37,56.58Zm.4-1.89h1.09v1.09H37.44Z"></path><path d="M40,56.58h1.89a.4.4,0,0,0,.4-.4V54.29a.4.4,0,0,0-.4-.4H40a.4.4,0,0,0-.4.4v1.89A.4.4,0,0,0,40,56.58Zm.4-1.89h1.09v1.09H40.4Z"></path><path d="M58.11,50.45H60a.4.4,0,0,0,.4-.4V48.16a.4.4,0,0,0-.4-.4H58.11a.4.4,0,0,0-.4.4v1.89A.4.4,0,0,0,58.11,50.45Zm.4-1.89H59.6v1.09H58.51Z"></path><path d="M61.06,50.45H63a.4.4,0,0,0,.4-.4V48.16a.4.4,0,0,0-.4-.4H61.06a.4.4,0,0,0-.4.4v1.89A.4.4,0,0,0,61.06,50.45Zm.4-1.89h1.09v1.09H61.46Z"></path><path d="M58.11,53.52H60a.4.4,0,0,0,.4-.4V51.22a.4.4,0,0,0-.4-.4H58.11a.4.4,0,0,0-.4.4v1.89A.4.4,0,0,0,58.11,53.52Zm.4-1.89H59.6v1.09H58.51Z"></path><path d="M61.06,53.52H63a.4.4,0,0,0,.4-.4V51.22a.4.4,0,0,0-.4-.4H61.06a.4.4,0,0,0-.4.4v1.89A.4.4,0,0,0,61.06,53.52Zm.4-1.89h1.09v1.09H61.46Z"></path><path d="M58.11,56.58H60a.4.4,0,0,0,.4-.4V54.29a.4.4,0,0,0-.4-.4H58.11a.4.4,0,0,0-.4.4v1.89A.4.4,0,0,0,58.11,56.58Zm.4-1.89H59.6v1.09H58.51Z"></path><path d="M61.06,56.58H63a.4.4,0,0,0,.4-.4V54.29a.4.4,0,0,0-.4-.4H61.06a.4.4,0,0,0-.4.4v1.89A.4.4,0,0,0,61.06,56.58Zm.4-1.89h1.09v1.09H61.46Z"></path><path d="M55.45,22H44.55a.4.4,0,1,0,0,.8H55.45a.4.4,0,1,0,0-.8Z"></path><path d="M49.75,79.19A2.17,2.17,0,1,0,47.57,77,2.17,2.17,0,0,0,49.75,79.19Zm0-3.54A1.37,1.37,0,1,1,48.38,77,1.37,1.37,0,0,1,49.75,75.65Z"></path><path d="M65.35,18H34.65a4.45,4.45,0,0,0-4.45,4.45v55.1A4.45,4.45,0,0,0,34.65,82h30.7a4.45,4.45,0,0,0,4.45-4.45V22.45A4.45,4.45,0,0,0,65.35,18ZM31,22.45a3.65,3.65,0,0,1,3.65-3.65h30.7A3.65,3.65,0,0,1,69,22.45V26.1H31ZM69,26.9V73.1H31V26.9Zm0,50.65a3.65,3.65,0,0,1-3.65,3.65H34.65A3.65,3.65,0,0,1,31,77.55V73.9H69Z"></path><path d="M35.4,65.67H64.6a.4.4,0,0,0,0-.8H35.4a.4.4,0,0,0,0,.8Z"></path><path d="M64.6,67.24H35.4a.4.4,0,0,0,0,.8H64.6a.4.4,0,0,0,0-.8Z"></path><rect x="49.6" y="55.23" width="0.8" height="1.35"></rect></svg>
